!!!OTL: 137. Ding, Ding, Thalering!
!!!ARE: Europa, Mitteleuropa, Deutschland, Thueringen, Stotternheim
!!!SCT: K2137
!!!TXL: @@DE
!!!YEM: Copyright 1995, estate of Helmut Schaffrath.
**kern	**text
*clefG2	*
*M2/4	*
*k[f#]	*
*G:	*
=1	=1
{4dd	Ding,
4b	Ding,
=2	=2
8dd	Tha-
8dd	-le-
8b}	-ring!
{8g	Was
=3	=3
8g	ſteckt
8a	denn
8b	un-
8cc	-ter
=4	=4
8dd	die-
8dd	-ſem
4b}	Ding?
=5	=5
{8dd	ei-
8dd	-ne
8b	klei-
8b	-ne
=6	=6
8dd	Kö-
8dd	-ni-
8b}	-gin,
{8g	ſie
=7	=7
8g	iſt
8a	ſo
8b	feſt
8cc	ver-
=8	=8
4dd	-mau-
4b}	-ert.
=9	=9
{8dd	Mau-
8dd	-er
8b	woll'n
8b	wir
=10	=10
4dd	ſte-
4b}	-chen,
=11	=11
{8dd	Stei-
8dd	-ne
8b	woll'n
8b	wir
=12	=12
4dd	bre-
4b}	-chen,
=13	=13
{8ddL	Hand,
8ccJ	.
8bL	Hand
8aJ	.
=14	=14
4g	weg!
4r}	.
==	==
!!!AGN: Kinder - Lied, Reigen, Tanz - Spiel
!!!ONB: ESAC (Essen Associative Code) Database: KINDER
!!!AMT: simple duple
!!!AIN: vox
!!!EED: Helmut Schaffrath
!!!EEV: 1.0
!!Aus Stotternheim bei Erfurt 1858
!!!GTL: Zweites Buch. Kinderspiel: 2. Reigen und Tanzspiele. / C. Ringelreihen mit Aufloesen des Kreises und Haschenspiel.
!!@@COMMENT:"Ein Mädchen ſitʒt in der Mitte, die andern halten ihr das Kleid über den Kopf. Eine ʒählt aus: "eins, ʒwei, drei! 
!!Hand weg! " wenn das Wort "weg!" kommt, läßt ſie los vom Kleide. Wiederholung des Liedes, bis noch Eins die Hände am Kleide hat; 
!!auch dieſe läßt beim letʒten "weg" los und alle werden von der in der Mitte Sitʒenden ʒu haſchen geſucht."
!!@@END:
!!!URL-scan: https://archive.org/details/DeutschesKinderliedUndKinderspiel/page/460/mode/1up
!!!ENC: Anna Maria Matuszewska
!!!EEV: 2024/03/09
*-	*-
